Numix-GalliumOS/16/actions/tap-create.svg

<?xml version="1.0" encoding="UTF-8" standalone="no"?>
<svg
   xmlns:dc="http://purl.org/dc/elements/1.1/"
   xmlns:cc="http://creativecommons.org/ns#"
   xmlns:rdf="http://www.w3.org/1999/02/22-rdf-syntax-ns#"
   xmlns:svg="http://www.w3.org/2000/svg"
   xmlns="http://www.w3.org/2000/svg"
   xmlns:sodipodi="http://sodipodi.sourceforge.net/DTD/sodipodi-0.dtd"
   xmlns:inkscape="http://www.inkscape.org/namespaces/inkscape"
   width="16"
   height="16"
   viewBox="0 0 16 16"
   id="svg2"
   version="1.1"
   inkscape:version="0.48.5 r10040"
   sodipodi:docname="tap-create.svg">
  <metadata
     id="metadata16">
    <rdf:RDF>
      <cc:Work
         rdf:about="">
        <dc:format>image/svg+xml</dc:format>
        <dc:type
           rdf:resource="http://purl.org/dc/dcmitype/StillImage" />
      </cc:Work>
    </rdf:RDF>
  </metadata>
  <defs
     id="defs14" />
  <sodipodi:namedview
     pagecolor="#ffffff"
     bordercolor="#666666"
     borderopacity="1"
     objecttolerance="10"
     gridtolerance="10"
     guidetolerance="10"
     inkscape:pageopacity="0"
     inkscape:pageshadow="2"
     inkscape:window-width="640"
     inkscape:window-height="480"
     id="namedview12"
     showgrid="false"
     inkscape:zoom="14.75"
     inkscape:cx="8"
     inkscape:cy="8"
     inkscape:window-x="492"
     inkscape:window-y="270"
     inkscape:window-maximized="0"
     inkscape:current-layer="svg2" />
  <path
     style="fill:#c19553"
     d="m 1.8020832,0.9999998 c -0.4010417,0 -0.8020834,0.4010417 -0.8020834,0.8020834 l 0,12.4186198 C 0.9999998,14.598959 1.4010415,15 1.779297,15 l 12.441406,0 C 14.598959,15 15,14.598959 15,14.220703 L 15,1.779297 C 15,1.4010415 14.598959,0.9999998 14.220703,0.9999998 z"
     id="path4" />
  <path
     style="fill:#fff;fill-opacity:.196"
     d="m 1.8020832,0.9999998 c -0.4010417,0 -0.80208342,0.4010417 -0.8020834,0.8020834 L 1,6 C 2.5540362,6 13.445964,6 15,6 L 15,1.779297 C 15,1.4010415 14.598959,0.9999998 14.220703,0.9999998 z"
     id="path6" />
  <path
     style="fill:#fff"
     d="m 7,1 0,1 1,0 0,1 -1,0 0,1 1,0 0,1 -1,0 0,1 1,0.01 0,2 L 7,8 l 0,2 2,0 0,-2 -1,0.01 L 8,7 9,7 9,6 8,6.0099971 8,5 9,5 9,4 8,4 8,3 9,3 9,2 8,2 8,1 z"
     id="path8" />
  <path
     inkscape:connector-curvature="0"
     style="fill:#859900"
     d="m 16,10.000001 -3,0 0,-3.0000002 -3,0 0,3.0000002 -3,0 L 7,13 l 3,0 0,3 3,0 0,-3 3,0 z"
     id="path10" />
</svg>

<svg xmlns="http://www.w3.org/2000/svg" viewBox="0 0 16 16">
 <path d="m 1.802 1 c -0.401 0 -0.802 0.401 -0.802 0.802 l 0 12.419 c 0 0.378 0.401 0.779 0.779 0.779 l 12.441 0 c 0.378 0 0.779 -0.401 0.779 -0.779 l 0 -12.441 c 0 -0.378 -0.401 -0.779 -0.779 -0.779 z" style="fill:#c19553"/>
 <path d="m 1.802 1 c -0.401 0 -0.802 0.401 -0.802 0.802 l 0 4.198 c 1.554 0 12.446 0 14 0 l 0 -4.221 c 0 -0.378 -0.401 -0.779 -0.779 -0.779 z" style="fill:#fff;fill-opacity:0.196"/>
 <path d="m 7,1 0,1 1,0 0,1 -1,0 0,1 1,0 0,1 -1,0 0,1 1,0.01 0,2 L 7,8 l 0,2 2,0 0,-2 -1,0.01 L 8,7 9,7 9,6 8,6.0099971 8,5 9,5 9,4 8,4 8,3 9,3 9,2 8,2 8,1 z" style="fill:#fff"/>
 <path d="m 16 10 -3 0 0 -3 -3 0 0 3 -3 0 l 0 3 l 3 0 0 3 3 0 0 -3 3 0 z" style="fill:#859900"/>
</svg>
